src/assets/img/creator/type-cards/svg/vidéaste.svg

<svg fill="none" height="150" viewBox="0 0 150 150" width="150" xmlns="http://www.w3.org/2000/svg"><path d="m0 0h150v150h-150z"/><g stroke="#fcfbff" stroke-linecap="round" stroke-linejoin="round" stroke-width="7"><path d="m112.776 26.6279h-75.1558c-5.7856 0-10.4757 4.6901-10.4757 10.4757v75.1554c0 5.786 4.6901 10.476 10.4757 10.476h75.1558c5.786 0 10.476-4.69 10.476-10.476v-75.1554c0-5.7856-4.69-10.4757-10.476-10.4757z"/><path d="m51.1709 26.6279v96.1071"/><path d="m99.2246 26.6279v96.1071"/><path d="m27.1445 74.6816h96.1075"/><path d="m27.1445 50.6543h24.0268"/><path d="m27.1445 98.708h24.0268"/><path d="m99.2246 98.708h24.0264"/><path d="m99.2246 50.6543h24.0264"/></g></svg>

<svg width="150" height="150" viewBox="0 0 150 150" fill="none" xmlns="http://www.w3.org/2000/svg">
<rect width="150" height="150" />
<g id="vid&#195;&#169;aste">
<g id="pen-tool">
<g id="Group 43">
<path id="Vector" d="M112.776 26.6279H37.6202C31.8346 26.6279 27.1445 31.318 27.1445 37.1036V112.259C27.1445 118.045 31.8346 122.735 37.6202 122.735H112.776C118.562 122.735 123.252 118.045 123.252 112.259V37.1036C123.252 31.318 118.562 26.6279 112.776 26.6279Z" stroke="#FCFBFF" stroke-width="7" stroke-linecap="round" stroke-linejoin="round"/>
<path id="Vector_2" d="M51.1709 26.6279V122.735" stroke="#FCFBFF" stroke-width="7" stroke-linecap="round" stroke-linejoin="round"/>
<path id="Vector_3" d="M99.2246 26.6279V122.735" stroke="#FCFBFF" stroke-width="7" stroke-linecap="round" stroke-linejoin="round"/>
<path id="Vector_4" d="M27.1445 74.6816H123.252" stroke="#FCFBFF" stroke-width="7" stroke-linecap="round" stroke-linejoin="round"/>
<path id="Vector_5" d="M27.1445 50.6543H51.1713" stroke="#FCFBFF" stroke-width="7" stroke-linecap="round" stroke-linejoin="round"/>
<path id="Vector_6" d="M27.1445 98.708H51.1713" stroke="#FCFBFF" stroke-width="7" stroke-linecap="round" stroke-linejoin="round"/>
<path id="Vector_7" d="M99.2246 98.708H123.251" stroke="#FCFBFF" stroke-width="7" stroke-linecap="round" stroke-linejoin="round"/>
<path id="Vector_8" d="M99.2246 50.6543H123.251" stroke="#FCFBFF" stroke-width="7" stroke-linecap="round" stroke-linejoin="round"/>
</g>
</g>
</g>
</svg>
